packages/core/assets/Icons/exclamation.svg

<svg viewBox="0 0 20 20" fill="none" xmlns="http://www.w3.org/2000/svg">
<path d="M10 11.6667C9.76389 11.6667 9.56598 11.5868 9.40626 11.4271C9.24653 11.2674 9.16667 11.0695 9.16667 10.8334V5.00002C9.16667 4.76391 9.24653 4.56599 9.40626 4.40627C9.56598 4.24655 9.76389 4.16669 10 4.16669C10.2361 4.16669 10.434 4.24655 10.5938 4.40627C10.7535 4.56599 10.8333 4.76391 10.8333 5.00002V10.8334C10.8333 11.0695 10.7535 11.2674 10.5938 11.4271C10.434 11.5868 10.2361 11.6667 10 11.6667ZM10 15.8334C9.76389 15.8334 9.56598 15.7535 9.40626 15.5938C9.24653 15.434 9.16667 15.2361 9.16667 15C9.16667 14.7639 9.24653 14.566 9.40626 14.4063C9.56598 14.2465 9.76389 14.1667 10 14.1667C10.2361 14.1667 10.434 14.2465 10.5938 14.4063C10.7535 14.566 10.8333 14.7639 10.8333 15C10.8333 15.2361 10.7535 15.434 10.5938 15.5938C10.434 15.7535 10.2361 15.8334 10 15.8334Z" fill="currentColor"/>
</svg>

<svg xmlns="http://www.w3.org/2000/svg" width="20" height="20" fill="none" viewBox="0 0 20 20">
  <path fill="#201F1F" d="M10 11.667a.806.806 0 0 1-.594-.24.806.806 0 0 1-.24-.594V5c0-.236.08-.434.24-.594.16-.16.358-.24.594-.24s.434.08.594.24c.16.16.24.358.24.594v5.833c0 .236-.08.434-.24.594a.807.807 0 0 1-.594.24Zm0 4.166a.806.806 0 0 1-.594-.24.807.807 0 0 1-.24-.593c0-.236.08-.434.24-.594.16-.16.358-.24.594-.24s.434.08.594.24c.16.16.24.358.24.594s-.08.434-.24.594a.807.807 0 0 1-.594.24Z"/>
</svg>
